X:1
T:Title
%%score { ( 1 3 ) | ( 2 4 ) }
L:1/8
Q:1/4=129
M:12/8
K:Ab
V:1 treble nm="Grand Piano"
V:3 treble 
V:2 bass 
V:4 bass 
V:1
 [Ec]3 [Ec]3 [Ec]3 [Ec][Ec]c | c3 c3 c2 B [CA]3 | B3 B3 B3 [Ge]3 | %3
w: W.~H.~Doane * * * * *|||
 [GB]2 [FA] [B,EG]2 [A,=DF] [G,E]6 | [Ec]3 [Ec]3 [Ec]3 [Ec][Ec]c | c3 c3 c2 d e3 | %6
w: |||
 [Fd]3 [FB]3 A3 c3 | z3 =d3 z6 | [Ee]6 [Ac]6 | e6 [Ac]6 | [Bd]2 [Bd] [Bd]2 [Ac] [GB]3 [Bd]3 | %11
w: |||||
 [Ac]2 [Bd] [ce]2 [Bd] [Ac]6 | [Af]6 [Ad]6 | e6 [Ac]6 | B3 B2 c B3 e3 | [F=d]3 [Ad]3 [Ge]6 | %16
w: |||||
 [Ee]6 [Ac]6 | e6 [Ac]6 | [Bd]2 [Bd] [Bd]2 [Ac] [GB]3 [Bd]3 | [Ac]2 [Bd] [ce]2 [Bd] [Ac]6 | %20
w: ||||
 [Af]6 [Ad]6 | e6 [Ac]6 | [GB]3 [GB]2 [Ac] [GB]3 [Ge]3 | [Gd]3 [DEB]3 [CEA]6 |] %24
w: ||||
V:2
 [A,,A,]3 [A,,A,]3 [A,,A,]3 [A,,A,][C,A,][E,A,E] | [A,E]3 [A,E]3 [E,G,E]2 [E,G,D] [A,,A,]3 | %2
 [E,G,E]3 [E,G,E]3 [E,G,E]3 [E,B,]3 | B,2 B, B,,2 B,, E,6 | %4
 [A,,A,]3 [A,,A,]3 [A,,A,]3 [A,,A,][C,A,][E,A,E] | [A,E]3 [A,E]3 [A,E]2 [A,B,E] [A,CE]3 | %6
 [D,A,]3 [D,A,]3 [E,CE]3 [E,A,E]3 | [E,G,E]3 [B,,B,]3 [E,B,]6 | [A,C]3 A,3 A,3 A,3 | E6 z6 | %10
 [E,E]2 [E,E] [E,E]2 [E,E] [E,E]3 [E,E]3 | [A,E]2 [A,E] [A,E]2 [A,E] [A,E]6 | [D,D]3 D,3 F,3 F,3 | %13
 A6 z6 | [B,EG]3 [B,EG]2 [B,EA] [B,EG]3 [B,G]3 | [B,,B,]3 [B,,B,]3 [E,B,]6 | [A,C]3 A,3 A,3 A,3 | %17
 E6 z6 | [E,E]2 [E,E] [E,E]2 [E,E] [E,E]3 [E,E]3 | [A,E]2 [A,E] [A,E]2 [A,E] [A,E]6 | %20
 [D,D]3 D,3 F,3 F,3 | A6[K:bass] z6 | [E,E]3 [E,E]2 [E,E] [E,E]3 [E,B,]3 | [E,B,]3 E,3 A,,6 |] %24
V:3
 x12 | x12 | x12 | x12 | x12 | x12 | x12 | B3 F2 A [Ge]6 | z3 C3 E3 E3 | z3 C3 E3 E3 | x12 | x12 | %12
 z3 D3 D3 D3 | z3 C3 E3 E3 | x12 | x12 | z3 C3 E3 E3 | z3 C3 E3 E3 | x12 | x12 | z3 D3 D3 D3 | %21
 z3 C3 E3 E3 | x12 | x12 |] %24
V:4
 x12 | x12 | x12 | x12 | x12 | x12 | x12 | x12 | x12 | [A,C]3 A,3 A,3 A,3 | x12 | x12 | x12 | %13
 [A,C]3 A,3 A,3 A,3 | x12 | x12 | x12 | [A,C]3 A,3 A,3 A,3 | x12 | x12 | x12 | %21
 [A,C]3 A,3[K:bass] A,3 A,3 | x12 | x12 |] %24

